icons/midnadark/actions/24/sharpenimage.svg

<?xml version="1.0" encoding="UTF-8" standalone="no"?>
<!-- Created with Inkscape (http://www.inkscape.org/) -->

<svg
   xmlns:dc="http://purl.org/dc/elements/1.1/"
   xmlns:cc="http://creativecommons.org/ns#"
   xmlns:rdf="http://www.w3.org/1999/02/22-rdf-syntax-ns#"
   xmlns:svg="http://www.w3.org/2000/svg"
   xmlns="http://www.w3.org/2000/svg"
   xmlns:sodipodi="http://sodipodi.sourceforge.net/DTD/sodipodi-0.dtd"
   xmlns:inkscape="http://www.inkscape.org/namespaces/inkscape"
   width="24"
   height="24"
   id="svg3869"
   version="1.1"
   inkscape:version="0.91 r13725"
   sodipodi:docname="sharpenimage.svg">
  <defs
     id="defs3871">
    <linearGradient
       id="linearGradient4290-48">
      <stop
         id="stop4292-0"
         offset="0"
         style="stop-color:#a5a5a5;stop-opacity:1;" />
      <stop
         id="stop4294-0"
         offset="1"
         style="stop-color:#f5f2f5;stop-opacity:1;" />
    </linearGradient>
    <inkscape:perspective
       id="perspective4146-9"
       inkscape:persp3d-origin="12 : 8 : 1"
       inkscape:vp_z="24 : 12 : 1"
       inkscape:vp_y="0 : 1000 : 0"
       inkscape:vp_x="0 : 12 : 1"
       sodipodi:type="inkscape:persp3d" />
    <inkscape:perspective
       id="perspective4146"
       inkscape:persp3d-origin="12 : 8 : 1"
       inkscape:vp_z="24 : 12 : 1"
       inkscape:vp_y="0 : 1000 : 0"
       inkscape:vp_x="0 : 12 : 1"
       sodipodi:type="inkscape:persp3d" />
    <inkscape:perspective
       sodipodi:type="inkscape:persp3d"
       inkscape:vp_x="0 : 12 : 1"
       inkscape:vp_y="0 : 1000 : 0"
       inkscape:vp_z="24 : 12 : 1"
       inkscape:persp3d-origin="12 : 8 : 1"
       id="perspective4146-9-1" />
    <inkscape:perspective
       sodipodi:type="inkscape:persp3d"
       inkscape:vp_x="0 : 12 : 1"
       inkscape:vp_y="0 : 1000 : 0"
       inkscape:vp_z="24 : 12 : 1"
       inkscape:persp3d-origin="12 : 8 : 1"
       id="perspective4146-96" />
    <clipPath
       clipPathUnits="userSpaceOnUse"
       id="clipPath16">
      <path
         d="m 0,706.465 1490.926,0 L 1490.926,0 0,0 0,706.465 Z"
         id="path18" />
    </clipPath>
    <clipPath
       clipPathUnits="userSpaceOnUse"
       id="clipPath24">
      <path
         d="m 22.1953,686.117 1447.7347,0 0,-667.1902 -1447.7347,0 L 22.1953,686.117 Z"
         id="path26" />
    </clipPath>
  </defs>
  <sodipodi:namedview
     id="base"
     pagecolor="#ffffff"
     bordercolor="#666666"
     borderopacity="1.0"
     inkscape:pageopacity="0.0"
     inkscape:pageshadow="2"
     inkscape:zoom="22.627416"
     inkscape:cx="-3.1031463"
     inkscape:cy="10.286893"
     inkscape:document-units="px"
     inkscape:current-layer="layer1"
     showgrid="true"
     fit-margin-top="0"
     fit-margin-left="0"
     fit-margin-right="0"
     fit-margin-bottom="0"
     inkscape:window-width="1366"
     inkscape:window-height="633"
     inkscape:window-x="0"
     inkscape:window-y="33"
     inkscape:window-maximized="1"
     inkscape:showpageshadow="false"
     inkscape:snap-bbox="true"
     inkscape:object-nodes="true">
    <inkscape:grid
       type="xygrid"
       id="grid4132" />
    <sodipodi:guide
       position="4,18"
       orientation="18,0"
       id="guide4138" />
    <sodipodi:guide
       position="5,3"
       orientation="0,18"
       id="guide4140" />
    <sodipodi:guide
       position="20,2.0000174"
       orientation="-18,0"
       id="guide4142" />
    <sodipodi:guide
       position="2,21"
       orientation="0,-18"
       id="guide4144" />
    <sodipodi:guide
       position="3,19.000017"
       orientation="16,0"
       id="guide4146" />
    <sodipodi:guide
       position="2,4"
       orientation="0,16"
       id="guide4148" />
    <sodipodi:guide
       position="21,20"
       orientation="-16,0"
       id="guide4150" />
    <sodipodi:guide
       position="2,20"
       orientation="0,-16"
       id="guide4152" />
  </sodipodi:namedview>
  <metadata
     id="metadata3874">
    <rdf:RDF>
      <cc:Work
         rdf:about="">
        <dc:format>image/svg+xml</dc:format>
        <dc:type
           rdf:resource="http://purl.org/dc/dcmitype/StillImage" />
        <dc:title />
      </cc:Work>
    </rdf:RDF>
  </metadata>
  <g
     inkscape:label="Capa 1"
     inkscape:groupmode="layer"
     id="layer1"
     transform="translate(-326,-532.3622)">
    <g
       transform="translate(1,-1)"
       id="layer1-17"
       inkscape:label="Capa 1"
       style="fill:#ffffff;fill-opacity:1">
      <g
         inkscape:label="Capa 1"
         id="layer1-4"
         transform="translate(326,-496)"
         style="fill:#ffffff;fill-opacity:1">
        <rect
           style="fill:#ffffff;fill-opacity:1;stroke:none"
           id="rect4035"
           width="0"
           height="10.999983"
           x="-37.468155"
           y="1034.9827" />
        <rect
           style="fill:#ffffff;fill-opacity:1;stroke:none"
           id="rect4035-5"
           width="0"
           height="10.999983"
           x="-19.427383"
           y="1032.9314" />
        <rect
           style="fill:#ffffff;fill-opacity:1;stroke:none"
           id="rect4035-8"
           width="0"
           height="10.999983"
           x="-37.468155"
           y="1034.9827" />
        <rect
           style="fill:#ffffff;fill-opacity:1;stroke:none"
           id="rect4035-59"
           width="0"
           height="10.999983"
           x="-37.468155"
           y="1034.9827" />
        <rect
           style="fill:#ffffff;fill-opacity:1;stroke:none"
           id="rect4035-6"
           width="0"
           height="10.999983"
           x="-44.776306"
           y="1030.1481" />
        <rect
           style="fill:#ffffff;fill-opacity:1;stroke:none"
           id="rect4035-5-1"
           width="0"
           height="10.999983"
           x="-26.735535"
           y="1028.0967" />
        <rect
           style="fill:#ffffff;fill-opacity:1;stroke:none"
           id="rect4035-8-3"
           width="0"
           height="10.999983"
           x="-44.776306"
           y="1030.1481" />
        <rect
           style="fill:#ffffff;fill-opacity:1;stroke:none"
           id="rect4035-59-4"
           width="0"
           height="10.999983"
           x="-44.776306"
           y="1030.1481" />
        <rect
           style="fill:#ffffff;fill-opacity:1;stroke:none"
           id="rect4035-1"
           width="0"
           height="10.999983"
           x="-38.761135"
           y="1034.3643" />
        <rect
           style="fill:#ffffff;fill-opacity:1;stroke:none"
           id="rect4035-5-0"
           width="0"
           height="10.999983"
           x="-20.720364"
           y="1032.313" />
        <rect
           style="fill:#ffffff;fill-opacity:1;stroke:none"
           id="rect4035-8-1"
           width="0"
           height="10.999983"
           x="-38.761135"
           y="1034.3643" />
        <rect
           style="fill:#ffffff;fill-opacity:1;stroke:none"
           id="rect4035-59-1"
           width="0"
           height="10.999983"
           x="-38.761135"
           y="1034.3643" />
        <g
           transform="translate(-40.1841,1.16606)"
           id="layer1-1"
           inkscape:label="Capa 1"
           style="fill:#ffffff;fill-opacity:1" />
        <path
           style="fill:#ffffff;fill-opacity:1;stroke:none"
           d="M 12,4 5,20 19,20 Z M 16.15625,17 17,19 7,19 c 0,0 9,-1.999983 9.15625,-2 z"
           transform="translate(-1,1029.3622)"
           id="path3006"
           inkscape:connector-curvature="0"
           sodipodi:nodetypes="cccccccc" />
      </g>
    </g>
  </g>
</svg>

<svg xmlns="http://www.w3.org/2000/svg" viewBox="0 0 24 24"><defs><clipPath><path d="m0 706.47h1490.93v-706.47h-1490.93v706.47"/></clipPath><clipPath><path d="m22.2 686.12h1447.73v-667.19h-1447.73v667.19"/></clipPath></defs><path d="m12 4l-7 16h14m-2.844-3l.844 2h-10c0 0 9-2 9.156-2z" transform="translate(0-.002)" fill="#fff"/></svg>
